X:1
T:GALWAY BAY
M:C
L:1/8
Q:80
C:Dr. Arthur Colahan
S:Irish Air
K:HP
|: {g}A{Gdc}d | \
{gfg}ff{e}ff{gfg}ff{gef}ed | \
{gde}d2{g}c4{G}A2 |
{ag}aa{ag}aa{ag}ae{gfg}f3/2g/2 | \
{fg}f6{g}A{Gdc}d | \
{gfg}ff{e}ff{gfg}f{ag}a{f}gf |
{gef}e2{gBd}B6 | \
{gef}e{A}ef2{gf}g3/2c{gfg}f3/2e/2 | \
{Gdc}d6 :|
